X:6473
T:Gozoniega
R:Habanera
C:Marcos del Torniellu
S:Msica Tradicional Asturiana, (C) Tello & Tito. Asturies, 2001.
S:http://pagina.de/MusTradAst <telloytito@asturies.org>
A:Asturies
Z:Les cuarenta principales
M:2/4
L:1/8
Q:1/4=54
K:F
C/
|FE G<F-|F7/2 C/|FE G/FC/|FE G/FE/|FD E2-|E7/2 E/|
|EE E/DE/|FE D/CC/|FA A/GA/|BE F2-|F7/2 C/|
|A/AA/ AG|G<F-FA,/C/|F>E GF|E3 C|
|G/GG/ GF|F/EF/ ED|D/CD/ CB,|A,4|
|(3CDC (3A,CF|A4|(3A^GA (3cBA|D4|
|B/AG/ (3FED|C>C FA|A/GA/ BE|F3 z/ C/|
